src/assets/outline/EmojiHappy.svg

<svg width="24" height="24" viewBox="0 0 24 24"  xmlns="http://www.w3.org/2000/svg">
<path d="M15 22.75H9C3.57 22.75 1.25 20.43 1.25 15V9C1.25 3.57 3.57 1.25 9 1.25H15C20.43 1.25 22.75 3.57 22.75 9V15C22.75 20.43 20.43 22.75 15 22.75ZM9 2.75C4.39 2.75 2.75 4.39 2.75 9V15C2.75 19.61 4.39 21.25 9 21.25H15C19.61 21.25 21.25 19.61 21.25 15V9C21.25 4.39 19.61 2.75 15 2.75H9Z" />
<path d="M15.5 10.5C14.26 10.5 13.25 9.49 13.25 8.25C13.25 7.01 14.26 6 15.5 6C16.74 6 17.75 7.01 17.75 8.25C17.75 9.49 16.74 10.5 15.5 10.5ZM15.5 7.5C15.09 7.5 14.75 7.84 14.75 8.25C14.75 8.66 15.09 9 15.5 9C15.91 9 16.25 8.66 16.25 8.25C16.25 7.84 15.91 7.5 15.5 7.5Z" />
<path d="M8.5 10.5C7.26 10.5 6.25 9.49 6.25 8.25C6.25 7.01 7.26 6 8.5 6C9.74 6 10.75 7.01 10.75 8.25C10.75 9.49 9.74 10.5 8.5 10.5ZM8.5 7.5C8.09 7.5 7.75 7.84 7.75 8.25C7.75 8.66 8.09 9 8.5 9C8.91 9 9.25 8.66 9.25 8.25C9.25 7.84 8.91 7.5 8.5 7.5Z" />
<path d="M12 19.4498C9.1 19.4498 6.75 17.0898 6.75 14.1998C6.75 13.2898 7.49 12.5498 8.4 12.5498H15.6C16.51 12.5498 17.25 13.2898 17.25 14.1998C17.25 17.0898 14.9 19.4498 12 19.4498ZM8.4 14.0498C8.32 14.0498 8.25 14.1198 8.25 14.1998C8.25 16.2698 9.93 17.9498 12 17.9498C14.07 17.9498 15.75 16.2698 15.75 14.1998C15.75 14.1198 15.68 14.0498 15.6 14.0498H8.4Z" />
</svg>

<?xml version="1.0" encoding="UTF-8"?>
<svg width="24" height="24" viewBox="0 0 24 24" xmlns="http://www.w3.org/2000/svg">
 <path d="m15 22.75h-6c-5.43 0-7.75-2.32-7.75-7.75v-6c0-5.43 2.32-7.75 7.75-7.75h6c5.43 0 7.75 2.32 7.75 7.75v6c0 5.43-2.32 7.75-7.75 7.75zm-6-20c-4.61 0-6.25 1.64-6.25 6.25v6c0 4.61 1.64 6.25 6.25 6.25h6c4.61 0 6.25-1.64 6.25-6.25v-6c0-4.61-1.64-6.25-6.25-6.25h-6z"/>
 <path d="m15.5 10.5c-1.24 0-2.25-1.01-2.25-2.25s1.01-2.25 2.25-2.25 2.25 1.01 2.25 2.25-1.01 2.25-2.25 2.25zm0-3c-0.41 0-0.75 0.34-0.75 0.75s0.34 0.75 0.75 0.75 0.75-0.34 0.75-0.75-0.34-0.75-0.75-0.75z"/>
 <path d="m8.5 10.5c-1.24 0-2.25-1.01-2.25-2.25s1.01-2.25 2.25-2.25 2.25 1.01 2.25 2.25-1.01 2.25-2.25 2.25zm0-3c-0.41 0-0.75 0.34-0.75 0.75s0.34 0.75 0.75 0.75 0.75-0.34 0.75-0.75-0.34-0.75-0.75-0.75z"/>
 <path d="m12 19.45c-2.9 0-5.25-2.36-5.25-5.25 0-0.91 0.74-1.65 1.65-1.65h7.2c0.91 0 1.65 0.74 1.65 1.65 0 2.89-2.35 5.25-5.25 5.25zm-3.6-5.4c-0.08 0-0.15 0.07-0.15 0.15 0 2.07 1.68 3.75 3.75 3.75s3.75-1.68 3.75-3.75c0-0.08-0.07-0.15-0.15-0.15h-7.2z"/>
</svg>
